app/img/amadeo_web/ic_manage.svg

<svg width="49" height="46" viewBox="0 0 49 46" fill="none" xmlns="http://www.w3.org/2000/svg">
    <rect width="49" height="46" rx="10" fill="url(#paint0_linear)"/>
    <rect x="0.5" y="0.5" width="48" height="45" rx="9.5" stroke="#FAFAFA" stroke-opacity="0.1"/>
    <path d="M24.7825 35.5379C24.7825 35.7994 24.6775 36.0501 24.4907 36.235C24.3038 36.4199 24.0504 36.5238 23.7862 36.5238H15.9852C14.9282 36.5238 13.9146 36.1083 13.1672 35.3687C12.4199 34.6292 12 33.6261 12 32.5801V12.9437C12 11.8977 12.4199 10.8947 13.1672 10.1551C13.9146 9.41549 14.9282 9 15.9852 9H28.947C30.0039 9 31.0176 9.41549 31.7649 10.1551C32.5123 10.8947 32.9322 11.8977 32.9322 12.9437V19.4901C32.9322 19.7516 32.8272 20.0024 32.6404 20.1873C32.4535 20.3722 32.2001 20.4761 31.9359 20.4761C31.6716 20.4761 31.4182 20.3722 31.2314 20.1873C31.0445 20.0024 30.9396 19.7516 30.9396 19.4901V12.9437C30.9396 12.4207 30.7296 11.9192 30.356 11.5494C29.9823 11.1796 29.4755 10.9718 28.947 10.9718H15.9852C15.4567 10.9718 14.9499 11.1796 14.5762 11.5494C14.2025 11.9192 13.9926 12.4207 13.9926 12.9437V32.5801C13.9926 33.1031 14.2025 33.6046 14.5762 33.9744C14.9499 34.3442 15.4567 34.552 15.9852 34.552H23.7862C24.0504 34.552 24.3038 34.6558 24.4907 34.8407C24.6775 35.0256 24.7825 35.2764 24.7825 35.5379ZM26.792 20.5963H18.1402C17.8759 20.5963 17.6225 20.4925 17.4357 20.3076C17.2488 20.1227 17.1439 19.8719 17.1439 19.6104C17.1439 19.3489 17.2488 19.0982 17.4357 18.9133C17.6225 18.7284 17.8759 18.6245 18.1402 18.6245H26.792C27.0562 18.6245 27.3096 18.7284 27.4965 18.9133C27.6833 19.0982 27.7883 19.3489 27.7883 19.6104C27.7883 19.8719 27.6833 20.1227 27.4965 20.3076C27.3096 20.4925 27.0562 20.5963 26.792 20.5963ZM23.5212 24.9985H18.1412C17.8769 24.9985 17.6235 24.8946 17.4367 24.7097C17.2498 24.5248 17.1449 24.274 17.1449 24.0125C17.1449 23.7511 17.2498 23.5003 17.4367 23.3154C17.6235 23.1305 17.8769 23.0266 18.1412 23.0266H23.5212C23.7854 23.0266 24.0388 23.1305 24.2256 23.3154C24.4125 23.5003 24.5175 23.7511 24.5175 24.0125C24.5175 24.274 24.4125 24.5248 24.2256 24.7097C24.0388 24.8946 23.7854 24.9985 23.5212 24.9985ZM21.8075 27.4337C22.0718 27.4337 22.3252 27.5375 22.512 27.7224C22.6989 27.9073 22.8038 28.1581 22.8038 28.4196C22.8038 28.6811 22.6989 28.9318 22.512 29.1167C22.3252 29.3016 22.0718 29.4055 21.8075 29.4055H18.1412C17.8769 29.4055 17.6235 29.3016 17.4367 29.1167C17.2498 28.9318 17.1449 28.6811 17.1449 28.4196C17.1449 28.1581 17.2498 27.9073 17.4367 27.7224C17.6235 27.5375 17.8769 27.4337 18.1412 27.4337H21.8075Z"
          fill="#022AF0"/>
    <path d="M37.653 29.9093V29.8906C38.1335 29.5045 38.5409 29.0372 38.8566 28.5103C38.9469 28.3601 38.9952 28.1888 38.9966 28.014C38.998 27.8392 38.9524 27.6672 38.8645 27.5155L37.5076 25.1888C37.4185 25.0373 37.2904 24.9118 37.1364 24.8252C36.9824 24.7386 36.808 24.694 36.6308 24.6958C36.0119 24.7029 35.3993 24.8191 34.8216 25.0389L34.8056 25.0291C34.7082 24.4253 34.5042 23.8433 34.2029 23.3096C34.1165 23.156 33.9903 23.028 33.8372 22.9389C33.6841 22.8498 33.5097 22.8028 33.3321 22.8029H30.6182C30.4406 22.8028 30.2662 22.8498 30.1131 22.9389C29.96 23.028 29.8337 23.156 29.7474 23.3096C29.4456 23.8431 29.2416 24.4252 29.1447 25.0291L29.1287 25.0389C28.551 24.8191 27.9384 24.7029 27.3195 24.6958C27.1429 24.697 26.9697 24.743 26.8162 24.8293C26.6627 24.9156 26.5341 25.0393 26.4427 25.1888L25.0848 27.5155C24.9961 27.6678 24.9501 27.8408 24.9517 28.0166C24.9533 28.1924 25.0023 28.3645 25.0937 28.5152C25.409 29.0423 25.8165 29.5097 26.2973 29.8955V29.9143C25.8165 30.3001 25.409 30.7675 25.0937 31.2945C25.0025 31.4451 24.9536 31.6171 24.952 31.7927C24.9504 31.9683 24.9963 32.1411 25.0848 32.2933L26.4427 34.6141C26.5361 34.7618 26.6652 34.8841 26.8182 34.9701C26.9712 35.0562 27.1435 35.1032 27.3195 35.1071C27.9384 35.1 28.551 34.9838 29.1287 34.764L29.1447 34.7738C29.2416 35.3777 29.4456 35.9598 29.7474 36.4933C29.8337 36.6469 29.96 36.7749 30.1131 36.864C30.2662 36.9531 30.4406 37 30.6182 37H33.3321C33.5097 37 33.6841 36.9531 33.8372 36.864C33.9903 36.7749 34.1165 36.6469 34.2029 36.4933C34.5042 35.9596 34.7082 35.3776 34.8056 34.7738L34.8216 34.764C35.3999 34.9841 36.0133 35.1003 36.6328 35.1071C36.8095 35.1066 36.9831 35.061 37.1367 34.9746C37.2903 34.8883 37.4187 34.7641 37.5096 34.6141L38.8665 32.2883C38.9552 32.1363 39.0012 31.9635 38.9998 31.7879C38.9984 31.6123 38.9496 31.4403 38.8585 31.2896C38.5423 30.7626 38.1342 30.2953 37.653 29.9093ZM36.3967 31.4444C36.5572 31.557 36.6996 31.693 36.8191 31.8476L36.0998 33.08C35.9319 33.057 35.7656 33.0241 35.6017 32.9814C35.4512 32.8031 35.242 32.6831 35.0109 32.6425C34.7798 32.6019 34.5416 32.6434 34.3384 32.7596L33.2912 33.3581C33.0898 33.4526 32.9312 33.6179 32.8462 33.8219C32.7613 34.0259 32.7562 34.2538 32.832 34.4613C32.8136 34.6557 32.7655 34.8461 32.6895 35.0262H31.2528C31.1894 34.8724 31.1362 34.7146 31.0934 34.554C31.1749 34.3356 31.1757 34.0958 31.0957 33.8769C31.0156 33.658 30.8599 33.4742 30.656 33.3581L29.6069 32.7596C29.4235 32.6341 29.1994 32.5807 28.9784 32.6098C28.7573 32.639 28.5552 32.7486 28.4114 32.9174C28.2328 32.9989 28.0426 33.0528 27.8475 33.0771L27.1282 31.8457C27.2318 31.7143 27.3433 31.5892 27.4619 31.471C27.6933 31.4315 27.9031 31.3124 28.0544 31.1348C28.2057 30.9571 28.2887 30.7322 28.2889 30.4999V29.301C28.3069 29.081 28.2415 28.8623 28.1054 28.6875C27.9692 28.5126 27.7722 28.3943 27.5526 28.3555C27.3921 28.2429 27.2497 28.107 27.1302 27.9523L27.8495 26.7199C28.0172 26.7436 28.1835 26.7766 28.3476 26.8185C28.4978 26.9971 28.7069 27.1175 28.938 27.1585C29.1692 27.1994 29.4075 27.1583 29.6109 27.0423L30.66 26.4438C30.8619 26.3493 31.0209 26.1836 31.1059 25.9792C31.1908 25.7748 31.1956 25.5464 31.1193 25.3386C31.1374 25.1449 31.1855 24.955 31.2618 24.7757H32.6995C32.7628 24.9303 32.8163 25.0887 32.8599 25.2499C32.7789 25.468 32.7784 25.7074 32.8584 25.9258C32.9384 26.1443 33.0938 26.3277 33.2972 26.4438L34.3443 27.0423C34.5277 27.1678 34.7519 27.2212 34.9729 27.1921C35.194 27.1629 35.3961 27.0533 35.5399 26.8845C35.7186 26.8033 35.9087 26.7494 36.1038 26.7248L36.8231 27.9562C36.7189 28.0871 36.6075 28.2121 36.4894 28.3309C36.258 28.3704 36.0481 28.4895 35.8969 28.6671C35.7456 28.8448 35.6625 29.0697 35.6624 29.302V30.4999C35.6445 30.7194 35.7098 30.9377 35.8455 31.1123C35.9812 31.2868 36.1777 31.4052 36.3967 31.4444ZM31.9751 26.9417C31.384 26.9417 30.8061 27.1152 30.3146 27.4402C29.8231 27.7652 29.44 28.2271 29.2138 28.7676C28.9875 29.3081 28.9284 29.9028 29.0437 30.4765C29.159 31.0502 29.4437 31.5773 29.8617 31.9909C30.2797 32.4046 30.8123 32.6863 31.392 32.8004C31.9718 32.9145 32.5728 32.8559 33.1189 32.6321C33.6651 32.4082 34.1319 32.0291 34.4603 31.5427C34.7887 31.0563 34.964 30.4845 34.964 29.8995C34.964 29.115 34.6491 28.3627 34.0886 27.808C33.5281 27.2533 32.7678 26.9417 31.9751 26.9417ZM31.9751 30.8854C31.7781 30.8854 31.5855 30.8276 31.4216 30.7192C31.2578 30.6109 31.1301 30.4569 31.0547 30.2768C30.9793 30.0966 30.9595 29.8984 30.998 29.7071C31.0364 29.5159 31.1313 29.3402 31.2707 29.2023C31.41 29.0644 31.5875 28.9705 31.7808 28.9325C31.974 28.8945 32.1744 28.914 32.3564 28.9886C32.5385 29.0632 32.6941 29.1896 32.8035 29.3517C32.913 29.5139 32.9714 29.7045 32.9714 29.8995C32.9714 30.161 32.8665 30.4117 32.6796 30.5966C32.4928 30.7815 32.2394 30.8854 31.9751 30.8854Z"
          fill="white"/>
    <defs>
        <linearGradient id="paint0_linear" x1="1.23357e-07" y1="-7.56962" x2="43.9368" y2="40.067"
                        gradientUnits="userSpaceOnUse">
            <stop stop-color="#5DD4E8"/>
            <stop offset="1" stop-color="#76F3B5"/>
        </linearGradient>
    </defs>
</svg>

<svg width="49" height="46" fill="none" xmlns="http://www.w3.org/2000/svg"><rect width="49" height="46" rx="10" fill="url(#a)"/><rect x=".5" y=".5" width="48" height="45" rx="9.5" stroke="#FAFAFA" stroke-opacity=".1"/><path d="M24.782 35.538a.98.98 0 0 1-.291.697c-.187.185-.44.289-.705.289h-7.8a4.007 4.007 0 0 1-2.819-1.155A3.923 3.923 0 0 1 12 32.58V12.944c0-1.046.42-2.05 1.167-2.789A4.007 4.007 0 0 1 15.985 9h12.962c1.057 0 2.07.415 2.818 1.155a3.923 3.923 0 0 1 1.167 2.789v6.546a.981.981 0 0 1-.292.697 1.002 1.002 0 0 1-1.409 0 .98.98 0 0 1-.291-.697v-6.546c0-.523-.21-1.025-.584-1.395a2.003 2.003 0 0 0-1.409-.577H15.985c-.528 0-1.035.208-1.409.577-.373.37-.583.872-.583 1.395V32.58c0 .523.21 1.025.583 1.394.374.37.88.578 1.41.578h7.8c.264 0 .518.104.705.289a.981.981 0 0 1 .291.697Zm2.01-14.942H18.14c-.264 0-.518-.104-.704-.288a.98.98 0 0 1 0-1.395c.186-.185.44-.288.704-.288h8.652c.264 0 .518.103.704.288a.98.98 0 0 1 0 1.395c-.186.184-.44.288-.704.288Zm-3.27 4.402h-5.38c-.265 0-.518-.103-.705-.288a.98.98 0 0 1 0-1.395c.186-.184.44-.288.704-.288h5.38c.264 0 .518.104.705.288a.98.98 0 0 1 0 1.395c-.187.185-.44.288-.705.288Zm-1.714 2.436c.264 0 .517.104.704.288a.98.98 0 0 1 0 1.395c-.187.185-.44.288-.704.288H18.14c-.264 0-.517-.103-.704-.288a.98.98 0 0 1 0-1.395c.186-.184.44-.288.704-.288h3.667Z" fill="#022AF0"/><path d="M37.653 29.91v-.02c.48-.386.888-.853 1.204-1.38a.978.978 0 0 0 .008-.995l-1.357-2.326a.998.998 0 0 0-.877-.493 5.258 5.258 0 0 0-1.81.343l-.015-.01a5.173 5.173 0 0 0-.603-1.72.992.992 0 0 0-.87-.506h-2.715a1.003 1.003 0 0 0-.87.507 5.149 5.149 0 0 0-.603 1.72l-.016.009a5.258 5.258 0 0 0-1.81-.343 1.041 1.041 0 0 0-.876.493l-1.358 2.326a.978.978 0 0 0 .009 1c.315.527.723.995 1.203 1.38v.02a5.18 5.18 0 0 0-1.203 1.38.979.979 0 0 0-.01.998l1.359 2.321a1.056 1.056 0 0 0 .877.493 5.258 5.258 0 0 0 1.809-.343l.016.01c.097.604.3 1.186.602 1.72a.99.99 0 0 0 .871.506h2.714a1.004 1.004 0 0 0 .87-.507 5.173 5.173 0 0 0 .604-1.72l.016-.009c.578.22 1.191.336 1.81.343a1.034 1.034 0 0 0 .878-.493l1.357-2.326a.977.977 0 0 0-.008-.998 5.199 5.199 0 0 0-1.206-1.38Zm-1.256 1.534c.16.113.303.249.422.404l-.72 1.232a4.28 4.28 0 0 1-.497-.099 1 1 0 0 0-1.264-.221l-1.047.598a.892.892 0 0 0-.445.464.878.878 0 0 0-.014.64 1.917 1.917 0 0 1-.142.564h-1.437a3.82 3.82 0 0 1-.16-.472.977.977 0 0 0-.437-1.196l-1.05-.598a.904.904 0 0 0-1.195.157 1.934 1.934 0 0 1-.564.16l-.719-1.231c.104-.132.215-.257.334-.375a.999.999 0 0 0 .592-.336.98.98 0 0 0 .235-.635V29.3a.881.881 0 0 0-.184-.613.898.898 0 0 0-.552-.332 1.945 1.945 0 0 1-.423-.404l.72-1.232c.167.024.333.057.498.099a1 1 0 0 0 1.263.223l1.049-.598a.879.879 0 0 0 .46-1.105c.017-.194.066-.384.142-.563H32.7c.063.154.116.313.16.474a.976.976 0 0 0 .437 1.194l1.047.598a.905.905 0 0 0 1.196-.158c.179-.08.369-.135.564-.16l.72 1.232c-.105.131-.216.256-.335.375a.999.999 0 0 0-.592.336.98.98 0 0 0-.235.635V30.5a.881.881 0 0 0 .184.612.899.899 0 0 0 .55.332Zm-4.422-4.502c-.591 0-1.169.173-1.66.498a2.964 2.964 0 0 0-1.101 1.328 2.929 2.929 0 0 0 .648 3.223c.418.414.95.695 1.53.81.58.113 1.18.055 1.727-.169a2.982 2.982 0 0 0 1.341-1.09 2.936 2.936 0 0 0-.371-3.734 3.005 3.005 0 0 0-2.114-.866Zm0 3.943a1.004 1.004 0 0 1-.92-.608.976.976 0 0 1 .216-1.075.999.999 0 0 1 1.085-.213.979.979 0 0 1 .323 1.608c-.186.184-.44.288-.704.288Z" fill="#fff"/><defs><linearGradient id="a" x1="0" y1="-7.57" x2="43.937" y2="40.067" gradientUnits="userSpaceOnUse"><stop stop-color="#5DD4E8"/><stop offset="1" stop-color="#76F3B5"/></linearGradient></defs></svg>
